X:15994
T:Steirischer Tanz I 
C:Trad.
N:aus einer Mlltonne in Liezen gerettet von Herrn Ernst Stradal, Irdning
I:140
M:3/4
L:1/8
K:F
c>c |: (cafcAd) | (cE) (Gc) c2 | (cbecBe) | (fA) (cf) f2 |
(cafcAd) | (cE) (Gc) c2 | (cbecBe) |1 f2 z2 c>c :|2 f2 z2 G>G | 
K:C
(GecGEA) | (GB,DG) G2 | (Gf BG AB) | (cE Gc) c2 |
(Ge cG EA) | (GB,DG) G2 | (Ge BG AB) | c2 z2 c>"D.C."c |]
